img/clients/tr-logo.svg

<?xml version="1.0" encoding="UTF-8" standalone="no"?>
<svg width="120px" height="35px" viewBox="0 0 120 35" version="1.1" xmlns="http://www.w3.org/2000/svg" xmlns:xlink="http://www.w3.org/1999/xlink">
    <!-- Generator: Sketch 3.6.1 (26313) - http://www.bohemiancoding.com/sketch -->
    <title>TR logo</title>
    <desc>Created with Sketch.</desc>
    <defs>
        <rect id="path-1" x="0" y="0" width="119.72093" height="34.7093023"></rect>
        <rect id="path-3" x="0" y="0" width="119.72093" height="34.7093023"></rect>
        <rect id="path-5" x="0" y="0" width="119.72093" height="34.7093023"></rect>
        <rect id="path-7" x="0" y="0" width="119.72093" height="34.7093023"></rect>
        <rect id="path-9" x="0" y="0" width="119.72093" height="34.7093023"></rect>
        <rect id="path-11" x="0" y="0" width="119.72093" height="34.7093023"></rect>
    </defs>
    <g id="Page-1" stroke="none" stroke-width="1" fill="none" fill-rule="evenodd">
        <g id="Desktop" transform="translate(-713.000000, -599.000000)">
            <g id="Clients" transform="translate(172.000000, 426.000000)">
                <g id="List-(seperated)" transform="translate(1.000000, 136.000000)">
                    <g id="TR" transform="translate(519.000000, 0.000000)">
                        <g id="TR-logo" transform="translate(21.000000, 37.000000)">
                            <path d="M2.26744186,2.26744186 L117.418605,2.26744186 L117.418605,32.4418605 L2.26744186,32.4418605 L2.26744186,2.26744186 L2.26744186,2.26744186 Z M0,34.7093023 L119.72093,34.7093023 L119.72093,0 L0,0 L0,34.7093023 L0,34.7093023 Z" id="Shape" fill="#333333"></path>
                            <g id="Group">
                                <g id="Clipped">
                                    <mask id="mask-2" fill="white">
                                        <use xlink:href="#path-1"></use>
                                    </mask>
                                    <g id="SVGID_1_"></g>
                                    <path d="M9.45348837,5.19767442 L10.8837209,5.19767442 L10.8837209,8.19767442 L10.9186047,8.19767442 C11.1976744,7.74418605 11.5813953,7.43023256 12.244186,7.43023256 C12.9418605,7.43023256 13.7093023,7.88372093 13.7093023,9.13953488 L13.7093023,14.5465116 L12.2790698,14.5465116 L12.2790698,9.6627907 C12.2790698,9.13953488 12.0348837,8.8255814 11.5813953,8.8255814 C11.0581395,8.8255814 10.8837209,9.1744186 10.8837209,9.80232558 L10.8837209,14.5465116 L9.45348837,14.5465116 L9.45348837,5.19767442 L9.45348837,5.19767442 Z" id="Shape" fill="#203232" mask="url(#mask-2)"></path>
                                </g>
                                <g id="Clipped">
                                    <mask id="mask-4" fill="white">
                                        <use xlink:href="#path-3"></use>
                                    </mask>
                                    <g id="SVGID_1_"></g>
                                    <path d="M15.8023256,10.4651163 L17.1976744,10.4651163 L17.1976744,9.6627907 C17.1976744,9.13953488 16.9186047,8.86046512 16.5,8.86046512 C16.0813953,8.86046512 15.8023256,9.13953488 15.8023256,9.6627907 L15.8023256,10.4651163 L15.8023256,10.4651163 Z M15.8023256,11.5813953 L15.8023256,12.5232558 C15.8023256,12.9767442 16.0813953,13.2209302 16.5,13.2209302 C17.0581395,13.2209302 17.1627907,12.8023256 17.1976744,12.5232558 L18.627907,12.5232558 C18.627907,13.1162791 18.4186047,13.6395349 18.0697674,14.0232558 C17.6860465,14.4069767 17.1976744,14.6511628 16.5348837,14.6511628 C15.6627907,14.6511628 15.0348837,14.2325581 14.6860465,13.6395349 C14.5116279,13.2906977 14.4418605,12.7674419 14.4418605,12.2093023 L14.4418605,9.90697674 C14.4418605,9.34883721 14.5116279,8.8255814 14.6860465,8.47674419 C15.0348837,7.84883721 15.6627907,7.46511628 16.5348837,7.46511628 C17.8255814,7.46511628 18.6627907,8.40697674 18.6627907,9.6627907 L18.6627907,11.6162791 L15.8023256,11.6162791 L15.8023256,11.5813953 Z" id="Shape" fill="#203232" mask="url(#mask-4)"></path>
                                </g>
                                <g id="Clipped">
                                    <mask id="mask-6" fill="white">
                                        <use xlink:href="#path-5"></use>
                                    </mask>
                                    <g id="SVGID_1_"></g>
                                    <path d="M8.54651163,8.86046512 L8.72093023,8.86046512 L8.72093023,7.5 L8.54651163,7.5 L7.6744186,7.5 L7.6744186,5.19767442 L6.27906977,5.19767442 L6.27906977,7.5 L6.27906977,8.61627907 L6.27906977,12.9069767 C6.27906977,13.6395349 6.69767442,14.5465116 7.98837209,14.5465116 L8.58139535,14.5465116 L8.72093023,14.5465116 L8.72093023,13.2209302 L8.54651163,13.2209302 C7.91860465,13.2209302 7.6744186,13.1860465 7.6744186,12.5232558 L7.6744186,8.86046512 L8.54651163,8.86046512 L8.54651163,8.86046512 Z" id="Shape" fill="#203232" mask="url(#mask-6)"></path>
                                </g>
                            </g>
                            <path d="M6.24418605,15.7674419 L18.5930233,15.7674419 L18.5930233,18.3837209 L6.24418605,18.3837209" id="Shape" fill="#333333"></path>
                            <path d="M6.24418605,24.2790698 L18.5930233,24.2790698 L18.5930233,26.8953488 L6.24418605,26.8953488" id="Shape" fill="#6DC4BC"></path>
                            <path d="M6.24418605,20.0232558 L18.5930233,20.0232558 L18.5930233,22.6395349 L6.24418605,22.6395349" id="Shape" fill="#F25736"></path>
                            <path d="M32.2325581,7.5 L40.5348837,7.5 L40.5348837,10.1162791 L35.0232558,10.1162791 L35.0232558,15.8372093 L39.8372093,15.8372093 L39.8372093,18.4534884 L35.0232558,18.4534884 L35.0232558,24.1744186 L40.5348837,24.1744186 L40.5348837,26.9651163 L32.2325581,26.9651163 L32.2325581,7.5 Z" id="Shape" fill="#333333"></path>
                            <path d="M42.3488372,7.5 L50.6511628,7.5 L50.6511628,10.1162791 L45.1395349,10.1162791 L45.1395349,15.7674419 L49.9534884,15.7674419 L49.9534884,18.3837209 L45.1395349,18.3837209 L45.1395349,26.9651163 L42.3488372,26.9651163 L42.3488372,7.5 Z" id="Shape" fill="#333333"></path>
                            <path d="M52.4651163,7.5 L60.7674419,7.5 L60.7674419,10.1162791 L55.255814,10.1162791 L55.255814,15.8372093 L60.0697674,15.8372093 L60.0697674,18.4534884 L55.255814,18.4534884 L55.255814,24.1744186 L60.7674419,24.1744186 L60.7674419,26.9651163 L52.4651163,26.9651163 L52.4651163,7.5 Z" id="Shape" fill="#333333"></path>
                            <path d="M73.7790698,7.5 L82.0813953,7.5 L82.0813953,10.1162791 L76.5697674,10.1162791 L76.5697674,15.8372093 L81.3837209,15.8372093 L81.3837209,18.4534884 L76.5697674,18.4534884 L76.5697674,24.1744186 L82.0813953,24.1744186 L82.0813953,26.9651163 L73.7790698,26.9651163 L73.7790698,7.5 Z" id="Shape" fill="#333333"></path>
                            <path d="M83.7906977,7.5 L86.4767442,7.5 L90.6627907,19.2209302 L90.7325581,19.2209302 L90.7325581,7.5 L93.5232558,7.5 L93.5232558,26.9651163 L90.872093,26.9651163 L86.6162791,15.2790698 L86.5813953,15.2790698 L86.5813953,26.9651163 L83.7906977,26.9651163 L83.7906977,7.5 Z" id="Shape" fill="#333333"></path>
                            <g id="Clipped">
                                <mask id="mask-8" fill="white">
                                    <use xlink:href="#path-7"></use>
                                </mask>
                                <g id="SVGID_3_"></g>
                                <path d="M104.406977,22.6046512 C104.406977,25.0116279 102.453488,27.1046512 99.9767442,27.1046512 C97.8488372,27.1046512 95.372093,26.0581395 95.372093,22.5348837 L95.372093,11.8255814 C95.372093,9.27906977 97.1860465,7.36046512 99.9069767,7.36046512 C102.488372,7.36046512 104.372093,9.31395349 104.372093,12 L104.372093,13.0813953 L101.581395,13.0813953 L101.581395,12.1395349 C101.581395,11.0581395 100.918605,10.1162791 99.872093,10.1162791 C98.4767442,10.1162791 98.1627907,11.0581395 98.1627907,12.3837209 L98.1627907,22.3255814 C98.1627907,23.4418605 98.6162791,24.3139535 99.872093,24.3139535 C100.639535,24.3139535 101.616279,23.8604651 101.616279,22.3604651 L101.616279,21.4186047 L104.406977,21.4186047 L104.406977,22.6046512 L104.406977,22.6046512 Z" id="Shape" fill="#333333" mask="url(#mask-8)"></path>
                            </g>
                            <path d="M105.802326,7.5 L114.104651,7.5 L114.104651,10.1162791 L108.593023,10.1162791 L108.593023,15.8372093 L113.406977,15.8372093 L113.406977,18.4534884 L108.593023,18.4534884 L108.593023,24.1744186 L114.104651,24.1744186 L114.104651,26.9651163 L105.802326,26.9651163 L105.802326,7.5 Z" id="Shape" fill="#203232"></path>
                            <g id="Group">
                                <g id="Clipped">
                                    <mask id="mask-10" fill="white">
                                        <use xlink:href="#path-9"></use>
                                    </mask>
                                    <g id="SVGID_5_"></g>
                                    <path d="M23.7906977,9.87209302 L25.2209302,9.87209302 C27.2790698,9.87209302 27.5930233,10.9534884 27.5930233,12.9069767 C27.5930233,14.8604651 27.2790698,15.7325581 25.3604651,15.7325581 L23.7906977,15.7325581 L23.7906977,9.87209302 L23.7906977,9.87209302 Z M28.2906977,17.7906977 C29.7906977,16.744186 30.4186047,15.0697674 30.4186047,12.9767442 C30.4186047,9.20930233 28.8139535,7.46511628 25.5,7.46511628 L21,7.46511628 L21,26.8953488 L23.7906977,26.8953488 L23.7906977,18.4186047 L24.1395349,18.4186047 C26.1976744,18.4186047 26.6511628,19.255814 26.9651163,21.4534884 C27.5930233,26.0930233 27.5930233,26.8953488 27.5930233,26.8953488 L30.3837209,26.8953488 L29.755814,22.255814 C29.4767442,20.1976744 29.0930233,18.7325581 28.2906977,17.7906977 L28.2906977,17.7906977 Z" id="Shape" fill="#333333" mask="url(#mask-10)"></path>
                                </g>
                                <g id="Clipped">
                                    <mask id="mask-12" fill="white">
                                        <use xlink:href="#path-11"></use>
                                    </mask>
                                    <g id="SVGID_5_"></g>
                                    <path d="M65.4418605,9.87209302 L66.872093,9.87209302 C68.9302326,9.87209302 69.244186,10.9534884 69.244186,12.9069767 C69.244186,14.8604651 68.9302326,15.7325581 67.0116279,15.7325581 L65.4418605,15.7325581 L65.4418605,9.87209302 L65.4418605,9.87209302 Z M69.9418605,17.7906977 C71.4418605,16.744186 72.0697674,15.0697674 72.0697674,12.9767442 C72.0697674,9.20930233 70.4651163,7.46511628 67.1511628,7.46511628 L62.6860465,7.46511628 L62.6860465,26.8953488 L65.4767442,26.8953488 L65.4767442,18.4186047 L65.8255814,18.4186047 C67.8837209,18.4186047 68.3372093,19.255814 68.6511628,21.4534884 C69.2790698,26.0930233 69.2790698,26.8953488 69.2790698,26.8953488 L72.0697674,26.8953488 L71.4418605,22.255814 C71.127907,20.1976744 70.744186,18.7325581 69.9418605,17.7906977 L69.9418605,17.7906977 Z" id="Shape" fill="#333333" mask="url(#mask-12)"></path>
                                </g>
                            </g>
                        </g>
                    </g>
                </g>
            </g>
        </g>
    </g>
</svg>

<svg width="120" height="35" viewBox="0 0 120 35" xmlns="http://www.w3.org/2000/svg" xmlns:xlink="http://www.w3.org/1999/xlink"><title>TR logo</title><defs><path id="a" d="M0 0h119.72v34.71H0z"/><path id="c" d="M0 0h119.72v34.71H0z"/><path id="e" d="M0 0h119.72v34.71H0z"/><path id="g" d="M0 0h119.72v34.71H0z"/><path id="i" d="M0 0h119.72v34.71H0z"/><path id="k" d="M0 0h119.72v34.71H0z"/></defs><g fill="none" fill-rule="evenodd"><path d="M2.267 2.267H117.42v30.175H2.266V2.267zM0 34.71h119.72V0H0v34.71z" fill="#333"/><g><mask id="b" fill="#fff"><use xlink:href="#a"/></mask><path d="M9.453 5.198h1.43v3h.036c.278-.454.66-.768 1.324-.768.698 0 1.465.454 1.465 1.71v5.407h-1.43V9.663c0-.523-.245-.837-.7-.837-.522 0-.696.348-.696.976v4.745h-1.43v-9.35z" fill="#203232" mask="url(#b)"/></g><g><mask id="d" fill="#fff"><use xlink:href="#c"/></mask><path d="M15.802 10.465h1.396v-.802c0-.523-.28-.803-.698-.803-.42 0-.698.28-.698.803v.802zm0 1.116v.943c0 .454.28.698.698.698.558 0 .663-.418.698-.697h1.43c0 .593-.21 1.117-.558 1.5-.384.384-.872.628-1.535.628-.872 0-1.5-.417-1.85-1.01-.173-.35-.243-.873-.243-1.43V9.906c0-.558.07-1.08.244-1.43.35-.628.977-1.012 1.85-1.012 1.29 0 2.127.942 2.127 2.198v1.953h-2.86v-.035z" fill="#203232" mask="url(#d)"/></g><g><mask id="f" fill="#fff"><use xlink:href="#e"/></mask><path d="M8.547 8.86h.174V7.5H7.675V5.198H6.28v7.708c0 .734.418 1.64 1.708 1.64h.733v-1.325h-.173c-.628 0-.873-.034-.873-.697V8.86h.873z" fill="#203232" mask="url(#f)"/></g><path d="M6.244 15.767h12.35v2.617H6.243" fill="#333"/><path d="M6.244 24.28h12.35v2.615H6.243" fill="#6DC4BC"/><path d="M6.244 20.023h12.35v2.617H6.243" fill="#F25736"/><path d="M32.233 7.5h8.302v2.616h-5.512v5.72h4.814v2.617h-4.814v5.72h5.512v2.792h-8.302V7.5zM42.35 7.5h8.3v2.616h-5.51v5.65h4.813v2.618H45.14v8.58h-2.79V7.5zM52.465 7.5h8.302v2.616h-5.51v5.72h4.813v2.617h-4.814v5.72h5.51v2.792h-8.3V7.5zM73.78 7.5h8.3v2.616h-5.51v5.72h4.814v2.617H76.57v5.72h5.51v2.792h-8.3V7.5zM83.79 7.5h2.687l4.186 11.72h.07V7.5h2.79v19.465h-2.65L86.615 15.28h-.035v11.685h-2.79V7.5z" fill="#333"/><g><mask id="h" fill="#fff"><use xlink:href="#g"/></mask><path d="M104.407 22.605c0 2.407-1.954 4.5-4.43 4.5-2.128 0-4.605-1.047-4.605-4.57v-10.71c0-2.546 1.814-4.465 4.535-4.465 2.58 0 4.465 1.954 4.465 4.64v1.08h-2.79v-.94c0-1.082-.663-2.024-1.71-2.024-1.395 0-1.71.942-1.71 2.268v9.942c0 1.116.454 1.988 1.71 1.988.768 0 1.744-.454 1.744-1.954v-.94h2.79v1.185z" fill="#333" mask="url(#h)"/></g><path d="M105.802 7.5h8.303v2.616h-5.512v5.72h4.814v2.617h-4.814v5.72h5.512v2.792h-8.303V7.5z" fill="#203232"/><g><g><mask id="j" fill="#fff"><use xlink:href="#i"/></mask><path d="M23.79 9.872h1.43c2.06 0 2.373 1.08 2.373 3.035 0 1.953-.314 2.826-2.233 2.826h-1.57v-5.86zm4.5 7.92c1.5-1.048 2.13-2.722 2.13-4.815 0-3.768-1.606-5.512-4.92-5.512H21v19.43h2.79V18.42h.35c2.058 0 2.51.836 2.825 3.033.628 4.64.628 5.442.628 5.442h2.79l-.627-4.64c-.28-2.057-.663-3.522-1.465-4.464z" fill="#333" mask="url(#j)"/></g><g><mask id="l" fill="#fff"><use xlink:href="#k"/></mask><path d="M65.442 9.872h1.43c2.058 0 2.372 1.08 2.372 3.035 0 1.953-.314 2.826-2.232 2.826h-1.57v-5.86zm4.5 7.92c1.5-1.048 2.128-2.722 2.128-4.815 0-3.768-1.605-5.512-4.92-5.512h-4.464v19.43h2.79V18.42h.35c2.058 0 2.51.836 2.825 3.033.63 4.64.63 5.442.63 5.442h2.79l-.628-4.64c-.314-2.057-.698-3.522-1.5-4.464z" fill="#333" mask="url(#l)"/></g></g></g></svg>
